app/assets/images/heroicons/micro/document-currency-bangladeshi.svg

<svg width="16" height="16" viewBox="0 0 16 16" fill="none" xmlns="http://www.w3.org/2000/svg">
<path fill-rule="evenodd" clip-rule="evenodd" d="M2.5 3.5C2.5 2.67157 3.17157 2 4 2H8.87868C9.2765 2 9.65804 2.15804 9.93934 2.43934L13.0607 5.56066C13.342 5.84197 13.5 6.2235 13.5 6.62132V12.5C13.5 13.3284 12.8284 14 12 14H4C3.17157 14 2.5 13.3284 2.5 12.5V3.5ZM6.00016 5.2068C5.64837 5.33166 5.25056 5.17745 5.07934 4.83502C4.8941 4.46454 5.04427 4.01403 5.41475 3.82879C6.37287 3.34974 7.50016 4.04645 7.50016 5.11765V6H11.25C11.6642 6 12 6.33579 12 6.75C12 7.16421 11.6642 7.5 11.25 7.5H7.50016V10.7496C7.50016 10.962 7.58903 11.1392 7.69936 11.2406C7.79838 11.3316 7.90559 11.3601 8.03036 11.3253C8.62947 11.1581 9.18136 10.876 9.66049 10.5039H9.50016C9.08595 10.5039 8.75016 10.1682 8.75016 9.75394C8.75016 9.33973 9.08595 9.00394 9.50016 9.00394H11.3579C11.6332 9.00394 11.8864 9.15482 12.0175 9.39699C12.1485 9.63915 12.1363 9.93365 11.9857 10.1642C11.1678 11.416 9.91225 12.3574 8.4336 12.7701C7.76044 12.958 7.12674 12.7516 6.68434 12.345C6.25325 11.9488 6.00016 11.3657 6.00016 10.7496V7.5H4.75C4.33579 7.5 4 7.16421 4 6.75C4 6.33579 4.33579 6 4.75 6H6.00016V5.2068Z" fill="black"/>
</svg>

<svg xmlns="http://www.w3.org/2000/svg" viewBox="0 0 16 16" fill="currentColor" aria-hidden="true" data-slot="icon">
  <path fill-rule="evenodd" d="M2.5 3.5A1.5 1.5 0 0 1 4 2h4.879a1.5 1.5 0 0 1 1.06.44l3.122 3.12a1.5 1.5 0 0 1 .439 1.061V12.5A1.5 1.5 0 0 1 12 14H4a1.5 1.5 0 0 1-1.5-1.5v-9ZM6 5.207a.75.75 0 0 1-.585-1.378A1.441 1.441 0 0 1 7.5 5.118V6h3.75a.75.75 0 0 1 0 1.5H7.5v3.25c0 .212.089.39.2.49.098.092.206.12.33.085.6-.167 1.151-.449 1.63-.821H9.5a.75.75 0 1 1 0-1.5h1.858a.75.75 0 0 1 .628 1.16 6.26 6.26 0 0 1-3.552 2.606 1.825 1.825 0 0 1-1.75-.425A2.17 2.17 0 0 1 6 10.75V7.5H4.75a.75.75 0 0 1 0-1.5H6v-.793Z" clip-rule="evenodd"/>
</svg>
